brandFactory_export/1.Light/Flecha derecha_1Light (1).svg

<?xml version="1.0" encoding="UTF-8"?>
<svg width="24px" height="24px" viewBox="0 0 24 24" version="1.1" xmlns="http://www.w3.org/2000/svg" xmlns:xlink="http://www.w3.org/1999/xlink">
    <title>1.Light/Flecha derecha_1Light (1)</title>
    <g id="Symbols" stroke="none" stroke-width="1" fill="none" fill-rule="evenodd">
        <g id="1.Light/Flecha-derecha_1Light-(1)" fill="#5CB615" fill-rule="nonzero">
            <path d="M11.610084,23.6168067 C11.4655462,23.6168067 11.3243697,23.589916 11.189916,23.5361345 C10.7697479,23.3647059 10.5243697,22.9680672 10.5310924,22.4705882 L10.5243697,17.9361345 C10.5243697,17.8386555 10.4302521,17.7613445 10.3159664,17.7613445 L2.03697479,17.7613445 C1.40840336,17.7714286 0.914285714,17.5932773 0.561344538,17.2336134 C0.194957983,16.8605042 0.0134453782,16.2991597 0.0336134454,15.610084 L0.0336134454,8.14789916 C0.0201680672,7.35462185 0.181512605,6.81344538 0.544537815,6.43697479 C0.880672269,6.0907563 1.36470588,5.91596639 2.0302521,5.90588235 L2.03697479,5.90588235 L10.3193277,5.9092437 C10.4336134,5.9092437 10.5277311,5.83193277 10.5277311,5.73445378 L10.5008403,1.51260504 C10.4806723,0.884033613 10.7932773,0.322689076 11.2840336,0.114285714 C11.7445378,-0.0840336134 12.2655462,0.0605042017 12.7058824,0.51092437 L23.3915966,11.2605042 C23.6067227,11.4689076 23.7109244,11.6739496 23.7076418,11.8823529 C23.7076418,12.0672269 23.6235294,12.2386555 23.4621849,12.3932773 L12.692437,23.1092437 C12.3798319,23.4386555 11.9865546,23.6168067 11.610084,23.6168067 Z M2.03361345,17.0521008 L10.3159664,17.0521008 C10.8201681,17.0521008 11.2302521,17.4487395 11.2302521,17.9361345 L11.2369748,22.4739496 L11.2369748,22.4806723 C11.2336134,22.6823529 11.3109244,22.8268908 11.4554622,22.8840336 C11.6168067,22.9478992 11.902521,22.9210084 12.1848739,22.6218487 C12.1882353,22.6184874 12.1882353,22.6151261 12.1915966,22.6151261 L22.9613445,11.892437 L22.9680672,11.8857143 C22.9747899,11.8823529 22.9781513,11.8756303 22.9815126,11.8722689 C22.9680672,11.8521008 22.9411765,11.8151261 22.8907563,11.7680672 L22.887395,11.7647059 L12.1983193,1.01176471 C12.0638655,0.87394958 11.8016807,0.662184874 11.5596639,0.766386555 C11.3411765,0.860504202 11.1932773,1.16638655 11.2067227,1.49579832 L11.2067227,1.50588235 L11.2336134,5.73445378 C11.2336134,6.22184874 10.8235294,6.61848739 10.3193277,6.61848739 L2.04033613,6.61512605 C1.57647059,6.62184874 1.25378151,6.72605042 1.05546218,6.93109244 C0.833613445,7.15966387 0.732773109,7.55630252 0.742857143,8.14117647 L0.742857143,15.6336134 C0.732773109,15.9764706 0.779831933,16.4470588 1.06890756,16.7428571 C1.28067227,16.9579832 1.60336134,17.0655462 2.0302521,17.0588235 C2.0302521,17.0521008 2.0302521,17.0521008 2.03361345,17.0521008 Z" id="Flecha-derecha_1Light-(1)"></path>
        </g>
    </g>
</svg>

<svg width="24" height="24" viewBox="0 0 24 24" xmlns="http://www.w3.org/2000/svg"><path d="M11.61 23.617c-.144 0-.286-.027-.42-.08-.42-.172-.666-.569-.659-1.066l-.007-4.535c0-.097-.094-.175-.208-.175H2.037c-.629.01-1.123-.168-1.476-.527-.366-.373-.548-.935-.527-1.624V8.148c-.014-.793.148-1.335.51-1.711.337-.346.82-.521 1.486-.531h.007l8.282.003c.115 0 .209-.077.209-.175L10.5 1.513c-.02-.629.292-1.19.783-1.399.46-.198.982-.053 1.422.397l10.686 10.75c.215.208.319.413.316.621 0 .185-.084.357-.246.511L12.692 23.11c-.312.33-.705.508-1.082.508zm-9.576-6.565h8.282c.504 0 .914.397.914.884l.007 4.538v.007c-.003.201.074.346.218.403.162.064.448.037.73-.262.003-.004.003-.007.007-.007l10.77-10.723.006-.006c.007-.004.01-.01.014-.014a.588.588 0 00-.091-.104l-.004-.003L12.198 1.012c-.134-.138-.396-.35-.638-.246-.219.095-.367.4-.353.73v.01l.027 4.228c0 .488-.41.884-.915.884L2.04 6.615c-.464.007-.786.111-.985.316-.221.229-.322.625-.312 1.21v7.493c-.01.342.037.813.326 1.109.212.215.534.323.961.316 0-.007 0-.007.004-.007z" fill="#5CB615" fill-rule="nonzero"/></svg>
